X:45
T: Hazel Stick
T: Maide Coill (An)
S: B.Breathnach: "Ceol Rince na hEireann" II/13
Z: B.Black
L: 1/8
M: 6/8
R: jig
K: G
D|GGG BGG|BGB cBA|GGG BGG|A2A B2A|
GGG BGG|BGB Bcd|efe dcB|ABA G2 :|
(3d/e/f/|g2g bgg|agg bgg|Ggg bgg|eg/f/e e2|
g2g bgg|agg bgg|eg/f/e dcB|ABA G2 :|

